svg/part/hair_2_line.svg

<?xml version="1.0" encoding="UTF-8"?>
<svg width="24px" height="24px" viewBox="0 0 24 24" version="1.1" xmlns="http://www.w3.org/2000/svg" xmlns:xlink="http://www.w3.org/1999/xlink">
    <title>hair_2_line</title>
    <g id="页面-1" stroke="none" stroke-width="1" fill="none" fill-rule="evenodd">
        <g id="Part" transform="translate(-288.000000, 0.000000)">
            <g id="hair_2_line" transform="translate(288.000000, 0.000000)">
                 <path d="M24,0 L24,24 L0,24 L0,0 L24,0 Z M12.5934901,23.257841 L12.5819402,23.2595131 L12.5108777,23.2950439 L12.4918791,23.2987469 L12.4918791,23.2987469 L12.4767152,23.2950439 L12.4056548,23.2595131 C12.3958229,23.2563662 12.3870493,23.2590235 12.3821421,23.2649074 L12.3780323,23.275831 L12.360941,23.7031097 L12.3658947,23.7234994 L12.3769048,23.7357139 L12.4804777,23.8096931 L12.4953491,23.8136134 L12.4953491,23.8136134 L12.5071152,23.8096931 L12.6106902,23.7357139 L12.6232938,23.7196733 L12.6232938,23.7196733 L12.6266527,23.7031097 L12.609561,23.275831 C12.6075724,23.2657013 12.6010112,23.2592993 12.5934901,23.257841 L12.5934901,23.257841 Z M12.8583906,23.1452862 L12.8445485,23.1473072 L12.6598443,23.2396597 L12.6498822,23.2499052 L12.6498822,23.2499052 L12.6471943,23.2611114 L12.6650943,23.6906389 L12.6699349,23.7034178 L12.6699349,23.7034178 L12.678386,23.7104931 L12.8793402,23.8032389 C12.8914285,23.8068999 12.9022333,23.8029875 12.9078286,23.7952264 L12.9118235,23.7811639 L12.8776777,23.1665331 C12.8752882,23.1545897 12.8674102,23.1470016 12.8583906,23.1452862 L12.8583906,23.1452862 Z M12.1430473,23.1473072 C12.1332178,23.1423925 12.1221763,23.1452606 12.1156365,23.1525954 L12.1099173,23.1665331 L12.0757714,23.7811639 C12.0751323,23.7926639 12.0828099,23.8018602 12.0926481,23.8045676 L12.108256,23.8032389 L12.3092106,23.7104931 L12.3186497,23.7024347 L12.3186497,23.7024347 L12.3225043,23.6906389 L12.340401,23.2611114 L12.337245,23.2485176 L12.337245,23.2485176 L12.3277531,23.2396597 L12.1430473,23.1473072 Z" id="MingCute" fill-rule="nonzero"></path>
                <path d="M9.83949,20.2751 C9.42112,21.2467 8.25492,21.8083 7.17195,21.2535 C5.12569,20.2052 3.71847,19.0055 2.85706,17.6731 C1.98557,16.325 1.7168,14.9082 1.83847,13.5244 C2.07443,10.8406 3.7836,8.28864 5.2001,6.39998 C7.0844,3.8876 9.47934,2.5 12.0001,2.5 C14.5209,2.5 16.9158,3.88761 18.8001,6.39998 C20.201,8.26785 22.0396,10.8344 22.3395,13.525 C22.4951,14.9222 22.2395,16.3572 21.3319,17.7191 C20.4378,19.0607 18.9594,20.2597 16.7944,21.3041 C15.7112,21.8266 14.5559,21.2565 14.1508,20.2813 C13.429,20.7346 12.6726,21 12.0001,21 C11.3245,21 10.5643,20.7322 9.83949,20.2751 Z M6.8001,7.59998 C8.41581,5.44572 10.2709,4.5 12.0001,4.5 C13.7293,4.5 15.5844,5.44572 17.2001,7.59998 C18.6535,9.53782 20.1217,11.6822 20.3518,13.7465 C20.461,14.7266 20.2873,15.6802 19.6676,16.61 C19.0424,17.5481 17.9166,18.5309 16.0001,19.4665 L16.0001,18.5659 C16.8663,17.4161 17.5001,15.8736 17.5001,14 C17.5001,13.6165 17.4792,13.2455 17.4388,12.8875 C17.3822,12.3856 16.96,12.0047 16.4549,11.9998 C14.1672,11.9774 12.2866,10.2466 12.03,8.02262 C11.9603,7.41863 11.3462,7.00861 10.7617,7.17579 C8.36811,7.86032 6.50013,10.4049 6.50013,14 C6.50013,15.8736 7.1339,17.4161 8.0001,18.5659 L8.0001,19.4303 C6.21334,18.502 5.14367,17.5262 4.53665,16.5873 C3.93028,15.6493 3.74414,14.685 3.83079,13.6995 C4.01146,11.6445 5.37184,9.50432 6.8001,7.59998 Z M8.50013,14 C8.50013,11.778 9.3497,10.3262 10.343,9.58811 C11.1094,11.8487 13.0848,13.5505 15.4998,13.9235 C15.5125,15.3316 15.032,16.7126 14.0755,17.7561 C13.2436,18.6635 12.3661,19 12.0001,19 C11.6341,19 10.7566,18.6635 9.92477,17.7561 C9.13762,16.8974 8.50013,15.6325 8.50013,14 Z" id="形状" fill="#09244B"></path>
            </g>
        </g>
    </g>
</svg>

<svg xmlns="http://www.w3.org/2000/svg" width="24" height="24"><g fill="none" fill-rule="evenodd"><path d="M24 0v24H0V0h24ZM12.593 23.258l-.011.002-.071.035-.02.004-.014-.004-.071-.035c-.01-.004-.019-.001-.024.005l-.004.01-.017.428.005.02.01.013.104.074.015.004.012-.004.104-.074.012-.016.004-.017-.017-.427c-.002-.01-.009-.017-.017-.018Zm.265-.113-.013.002-.185.093-.01.01-.003.011.018.43.005.012.008.007.201.093c.012.004.023 0 .029-.008l.004-.014-.034-.614c-.003-.012-.01-.02-.02-.022Zm-.715.002a.023.023 0 0 0-.027.006l-.006.014-.034.614c0 .012.007.02.017.024l.015-.002.201-.093.01-.008.004-.011.017-.43-.003-.012-.01-.01-.184-.092Z"/><path fill="#09244B" d="M9.84 20.275c-.419.972-1.585 1.533-2.668.979-2.046-1.049-3.454-2.248-4.315-3.58-.871-1.349-1.14-2.766-1.019-4.15C2.074 10.841 3.784 8.29 5.2 6.4 7.084 3.888 9.48 2.5 12 2.5c2.52 0 4.916 1.388 6.8 3.9 1.401 1.868 3.24 4.434 3.54 7.125.155 1.397-.1 2.832-1.008 4.194-.894 1.342-2.373 2.54-4.538 3.585-1.083.523-2.238-.047-2.643-1.023-.722.454-1.478.719-2.15.719-.676 0-1.437-.268-2.162-.725ZM6.8 7.6c1.616-2.154 3.47-3.1 5.2-3.1s3.584.946 5.2 3.1c1.454 1.938 2.922 4.082 3.152 6.147.109.98-.065 1.933-.684 2.863-.626.938-1.751 1.92-3.668 2.857v-.901c.866-1.15 1.5-2.692 1.5-4.566 0-.383-.02-.755-.061-1.113a1 1 0 0 0-.984-.887 4.501 4.501 0 0 1-4.425-3.977 1.01 1.01 0 0 0-1.268-.847C8.368 7.86 6.5 10.405 6.5 14c0 1.874.634 3.416 1.5 4.566v.864c-1.787-.928-2.856-1.904-3.463-2.843-.607-.938-.793-1.902-.706-2.887.18-2.055 1.54-4.196 2.97-6.1ZM8.5 14c0-2.222.85-3.674 1.843-4.412a6.508 6.508 0 0 0 5.157 4.336c.012 1.408-.468 2.789-1.424 3.832C13.244 18.663 12.366 19 12 19c-.366 0-1.243-.337-2.075-1.244C9.138 16.897 8.5 15.633 8.5 14Z"/></g></svg>
